X:01
T: East Tennessee Blues
C: Old Time
L: 1/8
Q: 402
M: 4/4
S: MandoZine TablEdit Archives
Z: TablEdited by Mike Stangeland for MandoZine
K: C
z6 ef |: "C"ga ge ga ge | ga ge af ed | "F"cd cA cd cA | cd cA dc A^F | "C"G^F GA cB cd |
e^d eg a2 g2 |1 d"D7"^c db bg a2 | "G"g3a g2 ef :|2 d"G"^c dg ed AB | "C"[c6E6] ef |
|: "C"[g2c2] cg za gf | [e2c2] ce zf ed | "F"[c2F2] Fc zd cB | [A2F2] FA zB cA | "C"G^F GA cB cd |
|1 e"C"^d eg ga g2 | "D7"d^c de bd ad | "G"[g6B6] ef :|2 "G"e^d eg ae ga | (3gag ed cA GF |
"C"[c8E8] |
